X:1
T:Kat:y's Rambles -- Jig
R:jig
B:Ryan's Mammoth Collection
N: 84 426
Z: Contributed by Ray Davies,  ray:davies99.freeserve.co.uk
M:6/8
L:1/8
K:Dm
vA2d cBA | fga gec | d"4"ed cAF | GFG "4"AFD |
 A2d cBA | fga gec | d"4"ed cAG | Ad^c d2:|
|:vfad fad | fga agf | egc egc | efg gfe |
   fga gab | afd ecA | fed cAG | Ad^c d2:|
